X:19148
T:Xota de Payares (MQ 078)
T:Jota de Payares (MQ 078)
R:Xota
C:Tradicional
S:Msica Tradicional Asturiana, (C) Tello & Tito. Asturies, 2001.
S:http://pagina.de/MusTradAst <telloytito@asturies.org>
N:Jota de la zona de Pajares.
N:Es una de las ms populares de Asturies.
O:Payares (L.lena)
A:Asturies
Z:Manolo Quirs 078
M:3/8
L:1/8
Q:3/8=80
K:C
|: C2 C|CDE|FF{GF}E|
DFE|D2 (3E/D/C/-|C2 (3D/C/B,/-|B,3|
DFE|DFE|D2 (3E/D/C/-|C3|D2 D/D/|
DCC|C2 (3D/C/B,/-|B,3|DFE|DFE|D2 (3E/D/C/-|[1 C3- :|[2 C3-|C2 A/B/|
|: c2 A|B2 G|A A/B/A/G/|F2 G|ABc|BAG|FED|C3|
DEF|A2 G/E/|GFD|E/F/E/D/ C|DEF|A2 G/E/|GFD|[1 C2 A/B/ :|[2 C3||
